X: 5070
T: Bride's
R: polka
M: 2/4
K: Edorian
|:B E2 G|FE D2|E>F GA|Bc BA|
B E2 G|FE D2|E>F GE|A2 A2:|
|:AB cd|e4|AB cB|BA FA|
AB cd|e4|AB cB|A2 A2:|

